;FLAVOR:UltiGCode
;TIME:5999
;MATERIAL:3450
;MATERIAL2:0
;NOZZLE_DIAMETER:0.4
;MINX:84.127
;MINY:74.625
;MINZ:0.27
;MAXX:138.873
;MAXY:148.375
;MAXZ:2.01
;Generated with Cura_SteamEngine 4.13.1
M82 ;absolute extrusion mode
G0 F3000 Y50 ;avoid prime blob
G92 E0
G92 E0
G10
;LAYER_COUNT:30
;LAYER:0
M107
G0 F4320 X86.007 Y77.393 Z0.27
;TYPE:SKIRT
G11
G1 F1800 X86.552 Y76.816 E0.075
G1 X87.151 Y76.296 E0.14996
G1 X87.8 Y75.84 E0.22492
G1 X88.492 Y75.451 E0.29994
G1 X89.219 Y75.133 E0.37492
G1 X89.975 Y74.89 E0.44997
G1 X90.751 Y74.725 E0.52494
G1 X91.539 Y74.639 E0.59985
G1 X92.002 Y74.625 E0.64362
G1 X130.998 Y74.625 E4.32874
G1 X131.79 Y74.665 E4.40368
G1 X132.575 Y74.784 E4.47871
G1 X133.343 Y74.982 E4.55366
G1 X134.088 Y75.257 E4.62871
G1 X134.801 Y75.604 E4.70364
G1 X135.476 Y76.022 E4.77867
G1 X136.105 Y76.505 E4.85361
G1 X136.682 Y77.05 E4.92861
G1 X137.202 Y77.649 E5.00357
G1 X137.658 Y78.298 E5.07853
G1 X138.047 Y78.99 E5.15355
G1 X138.365 Y79.717 E5.22853
G1 X138.608 Y80.473 E5.30358
G1 X138.773 Y81.249 E5.37855
G1 X138.859 Y82.037 E5.45346
G1 X138.873 Y82.5 E5.49723
G1 X138.873 Y140.5 E10.97823
G1 X138.833 Y141.292 E11.05317
G1 X138.714 Y142.077 E11.1282
G1 X138.516 Y142.845 E11.20315
G1 X138.241 Y143.59 E11.27819
G1 X137.894 Y144.303 E11.35313
G1 X137.476 Y144.978 E11.42816
G1 X136.993 Y145.607 E11.5031
G1 X136.448 Y146.184 E11.5781
G1 X135.849 Y146.704 E11.65306
G1 X135.2 Y147.16 E11.72802
G1 X134.508 Y147.549 E11.80304
G1 X133.781 Y147.867 E11.87802
G1 X133.025 Y148.11 E11.95306
G1 X132.249 Y148.275 E12.02804
G1 X131.461 Y148.361 E12.10294
G1 X130.998 Y148.375 E12.14672
G1 X92.002 Y148.375 E15.83184
G1 X91.21 Y148.335 E15.90678
G1 X90.425 Y148.216 E15.98181
G1 X89.657 Y148.018 E16.05676
G1 X88.912 Y147.743 E16.1318
G1 X88.199 Y147.396 E16.20674
G1 X87.524 Y146.978 E16.28177
G1 X86.895 Y146.495 E16.35671
G1 X86.318 Y145.95 E16.43171
G1 X85.798 Y145.351 E16.50667
G1 X85.342 Y144.702 E16.58163
G1 X84.953 Y144.01 E16.65665
G1 X84.635 Y143.283 E16.73163
G1 X84.392 Y142.527 E16.80668
G1 X84.227 Y141.751 E16.88165
G1 X84.141 Y140.963 E16.95655
G1 X84.127 Y140.5 E17.00033
G1 X84.127 Y82.5 E22.48133
G1 X84.167 Y81.708 E22.55627
G1 X84.286 Y80.923 E22.6313
G1 X84.484 Y80.155 E22.70625
G1 X84.759 Y79.41 E22.78129
G1 X85.106 Y78.697 E22.85623
G1 X85.524 Y78.022 E22.93125
G1 X86.007 Y77.393 E23.0062
G0 F4320 X86.354 Y77.528
G1 F1800 X86.896 Y76.973 E23.07951
G1 X87.492 Y76.476 E23.15284
G1 X88.136 Y76.044 E23.22612
G1 X88.821 Y75.681 E23.29938
G1 X89.54 Y75.389 E23.37272
G1 X90.285 Y75.174 E23.44599
G1 X91.048 Y75.036 E23.51927
G1 X92.002 Y74.975 E23.6096
G1 X130.998 Y74.975 E27.29473
G1 X131.773 Y75.015 E27.36806
G1 X132.539 Y75.134 E27.44132
G1 X133.289 Y75.332 E27.51462
G1 X134.015 Y75.606 E27.58795
G1 X134.708 Y75.953 E27.66119
G1 X135.362 Y76.37 E27.73449
G1 X135.97 Y76.852 E27.80781
G1 X136.525 Y77.394 E27.88112
G1 X137.022 Y77.99 E27.95445
G1 X137.454 Y78.634 E28.02773
G1 X137.817 Y79.319 E28.10099
G1 X138.109 Y80.038 E28.17433
G1 X138.324 Y80.783 E28.2476
G1 X138.462 Y81.546 E28.32088
G1 X138.523 Y82.5 E28.41121
G1 X138.523 Y140.5 E33.89221
G1 X138.483 Y141.275 E33.96555
G1 X138.364 Y142.041 E34.03881
G1 X138.166 Y142.791 E34.11211
G1 X137.892 Y143.517 E34.18544
G1 X137.545 Y144.21 E34.25868
G1 X137.128 Y144.864 E34.33198
G1 X136.646 Y145.472 E34.4053
G1 X136.104 Y146.027 E34.4786
G1 X135.508 Y146.524 E34.55194
G1 X134.864 Y146.956 E34.62522
G1 X134.179 Y147.319 E34.69848
G1 X133.46 Y147.611 E34.77182
G1 X132.715 Y147.826 E34.84509
G1 X131.952 Y147.964 E34.91837
G1 X130.998 Y148.025 E35.0087
G1 X92.002 Y148.025 E38.69383
G1 X91.227 Y147.985 E38.76716
G1 X90.461 Y147.866 E38.84042
G1 X89.711 Y147.668 E38.91372
G1 X88.985 Y147.394 E38.98705
G1 X88.292 Y147.047 E39.06029
G1 X87.638 Y146.63 E39.13359
G1 X87.03 Y146.148 E39.20691
G1 X86.475 Y145.606 E39.28021
G1 X85.978 Y145.01 E39.35355
G1 X85.546 Y144.366 E39.42683
G1 X85.183 Y143.681 E39.50009
G1 X84.891 Y142.962 E39.57343
G1 X84.676 Y142.217 E39.6467
G1 X84.538 Y141.454 E39.71998
G1 X84.477 Y140.5 E39.81031
G1 X84.477 Y82.5 E45.29131
G1 X84.517 Y81.725 E45.36465
G1 X84.636 Y80.959 E45.4379
G1 X84.834 Y80.209 E45.51121
G1 X85.108 Y79.483 E45.58454
G1 X85.455 Y78.79 E45.65778
G1 X85.872 Y78.136 E45.73107
G1 X86.354 Y77.528 E45.80439
G0 F4320 X86.7 Y77.666
G1 F1800 X87.239 Y77.134 E45.87596
G1 X87.831 Y76.662 E45.94751
G1 X88.47 Y76.255 E46.0191
G1 X89.148 Y75.917 E46.0907
G1 X89.857 Y75.653 E46.16219
G1 X90.591 Y75.465 E46.23379
G1 X91.34 Y75.356 E46.30532
G1 X92.002 Y75.325 E46.36795
G1 X130.998 Y75.325 E50.05307
G1 X131.754 Y75.365 E50.12461
G1 X132.502 Y75.484 E50.19619
G1 X133.233 Y75.682 E50.26775
G1 X133.94 Y75.956 E50.33941
G1 X134.613 Y76.302 E50.41092
G1 X135.246 Y76.718 E50.4825
G1 X135.832 Y77.198 E50.55408
G1 X136.364 Y77.737 E50.62565
G1 X136.836 Y78.329 E50.6972
G1 X137.243 Y78.968 E50.76879
G1 X137.581 Y79.646 E50.84038
G1 X137.845 Y80.355 E50.91188
G1 X138.033 Y81.089 E50.98348
G1 X138.142 Y81.838 E51.05501
G1 X138.173 Y82.5 E51.11763
G1 X138.173 Y140.5 E56.59863
G1 X138.133 Y141.256 E56.67018
G1 X138.014 Y142.004 E56.74175
G1 X137.816 Y142.735 E56.81332
G1 X137.542 Y143.442 E56.88497
G1 X137.196 Y144.115 E56.95648
G1 X136.78 Y144.748 E57.02806
G1 X136.3 Y145.334 E57.09965
G1 X135.761 Y145.866 E57.17121
G1 X135.169 Y146.338 E57.24276
G1 X134.53 Y146.745 E57.31436
G1 X133.852 Y147.083 E57.38595
G1 X133.143 Y147.347 E57.45744
G1 X132.409 Y147.535 E57.52905
G1 X131.66 Y147.644 E57.60057
G1 X130.998 Y147.675 E57.6632
G1 X92.002 Y147.675 E61.34832
G1 X91.246 Y147.635 E61.41986
G1 X90.498 Y147.516 E61.49144
G1 X89.767 Y147.318 E61.56301
G1 X89.06 Y147.044 E61.63466
G1 X88.387 Y146.698 E61.70617
G1 X87.754 Y146.282 E61.77775
G1 X87.168 Y145.802 E61.84933
G1 X86.636 Y145.263 E61.9209
G1 X86.164 Y144.671 E61.99245
G1 X85.757 Y144.032 E62.06404
G1 X85.419 Y143.354 E62.13564
G1 X85.155 Y142.645 E62.20713
G1 X84.967 Y141.911 E62.27873
G1 X84.858 Y141.162 E62.35026
G1 X84.827 Y140.5 E62.41289
G1 X84.827 Y82.5 E67.89389
G1 X84.867 Y81.744 E67.96543
G1 X84.986 Y80.996 E68.037
G1 X85.184 Y80.265 E68.10857
G1 X85.458 Y79.558 E68.18023
G1 X85.804 Y78.885 E68.25174
G1 X86.22 Y78.252 E68.32332
G1 X86.7 Y77.666 E68.3949
G0 F4320 X87.045 Y77.808
G1 F1800 X87.581 Y77.3 E68.46469
G1 X88.169 Y76.853 E68.53449
G1 X88.802 Y76.472 E68.6043
G1 X89.472 Y76.161 E68.67411
G1 X90.172 Y75.925 E68.74392
G1 X90.893 Y75.766 E68.81369
G1 X91.628 Y75.685 E68.88357
G1 X92.002 Y75.675 E68.91892
G1 X130.998 Y75.675 E72.60404
G1 X131.736 Y75.715 E72.67389
G1 X132.464 Y75.834 E72.7436
G1 X133.176 Y76.032 E72.81343
G1 X133.862 Y76.305 E72.8832
G1 X134.515 Y76.651 E72.95304
G1 X135.127 Y77.065 E73.02286
G1 X135.69 Y77.543 E73.09266
G1 X136.198 Y78.079 E73.16244
G1 X136.645 Y78.667 E73.23224
G1 X137.026 Y79.3 E73.30206
G1 X137.337 Y79.97 E73.37186
G1 X137.573 Y80.67 E73.44167
G1 X137.732 Y81.391 E73.51144
G1 X137.813 Y82.126 E73.58132
G1 X137.823 Y82.5 E73.61668
G1 X137.823 Y140.5 E79.09768
G1 X137.783 Y141.238 E79.16752
G1 X137.664 Y141.966 E79.23723
G1 X137.466 Y142.678 E79.30707
G1 X137.193 Y143.364 E79.37684
G1 X136.847 Y144.017 E79.44668
G1 X136.433 Y144.629 E79.5165
G1 X135.955 Y145.192 E79.58629
G1 X135.419 Y145.7 E79.65608
G1 X134.831 Y146.147 E79.72588
G1 X134.198 Y146.528 E79.7957
G1 X133.528 Y146.839 E79.8655
G1 X132.828 Y147.075 E79.93531
G1 X132.107 Y147.234 E80.00508
G1 X131.372 Y147.315 E80.07496
G1 X130.998 Y147.325 E80.11031
G1 X92.002 Y147.325 E83.79544
G1 X91.264 Y147.285 E83.86528
G1 X90.536 Y147.166 E83.93499
G1 X89.824 Y146.968 E84.00482
G1 X89.138 Y146.695 E84.0746
G1 X88.485 Y146.349 E84.14443
G1 X87.873 Y145.935 E84.21426
G1 X87.31 Y145.457 E84.28405
G1 X86.802 Y144.921 E84.35384
G1 X86.355 Y144.333 E84.42364
G1 X85.974 Y143.7 E84.49345
G1 X85.663 Y143.03 E84.56326
G1 X85.427 Y142.33 E84.63307
G1 X85.268 Y141.609 E84.70284
G1 X85.187 Y140.874 E84.77271
G1 X85.177 Y140.5 E84.80807
G1 X85.177 Y82.5 E90.28907
G1 X85.217 Y81.762 E90.35891
G1 X85.336 Y81.034 E90.42862
G1 X85.534 Y80.322 E90.49846
G1 X85.807 Y79.636 E90.56823
G1 X86.153 Y78.983 E90.63807
G1 X86.567 Y78.371 E90.70789
G1 X87.045 Y77.808 E90.77768
G0 F4320 X86.915 Y78.494
G1 F1800 X87.391 Y77.955 E90.84564
G1 X87.923 Y77.471 E90.91361
G1 X88.506 Y77.05 E90.98156
G1 X89.133 Y76.696 E91.0496
G1 X89.794 Y76.413 E91.11755
G1 X90.483 Y76.206 E91.18554
G1 X91.191 Y76.076 E91.25356
G1 X92.002 Y76.025 E91.33035
G1 X130.998 Y76.025 E95.01548
G1 X131.716 Y76.065 E95.08343
G1 X132.426 Y76.184 E95.15146
G1 X133.118 Y76.382 E95.21948
G1 X133.783 Y76.655 E95.28741
G1 X134.415 Y77 E95.35546
G1 X135.004 Y77.413 E95.42344
G1 X135.543 Y77.889 E95.49139
G1 X136.027 Y78.421 E95.55936
G1 X136.448 Y79.004 E95.62731
G1 X136.802 Y79.631 E95.69536
G1 X137.085 Y80.292 E95.76331
G1 X137.292 Y80.981 E95.83129
G1 X137.422 Y81.689 E95.89932
G1 X137.473 Y82.5 E95.97611
G1 X137.473 Y140.5 E101.45711
G1 X137.433 Y141.218 E101.52506
G1 X137.314 Y141.928 E101.59309
G1 X137.116 Y142.62 E101.66111
G1 X136.843 Y143.285 E101.72904
G1 X136.498 Y143.917 E101.79709
G1 X136.085 Y144.506 E101.86507
G1 X135.609 Y145.045 E101.93302
G1 X135.077 Y145.529 E102.00099
G1 X134.494 Y145.95 E102.06895
G1 X133.867 Y146.304 E102.13699
G1 X133.206 Y146.587 E102.20494
G1 X132.517 Y146.794 E102.27292
G1 X131.809 Y146.924 E102.34095
G1 X130.998 Y146.975 E102.41774
G1 X92.002 Y146.975 E106.10286
G1 X91.284 Y146.935 E106.17082
G1 X90.574 Y146.816 E106.23885
G1 X89.882 Y146.618 E106.30687
G1 X89.217 Y146.345 E106.3748
G1 X88.585 Y146 E106.44284
G1 X87.996 Y145.587 E106.51082
G1 X87.457 Y145.111 E106.57877
G1 X86.973 Y144.579 E106.64674
G1 X86.552 Y143.996 E106.7147
G1 X86.198 Y143.369 E106.78274
G1 X85.915 Y142.708 E106.85069
G1 X85.708 Y142.019 E106.91868
G1 X85.578 Y141.311 E106.9867
G1 X85.527 Y140.5 E107.06349
G1 X85.527 Y82.5 E112.54449
G1 X85.567 Y81.782 E112.61245
G1 X85.686 Y81.072 E112.68048
G1 X85.884 Y80.38 E112.7485
G1 X86.157 Y79.715 E112.81643
G1 X86.502 Y79.083 E112.88447
G1 X86.915 Y78.494 E112.95245
G0 F4320 X87.262 Y78.621
G1 F1800 X87.735 Y78.106 E113.01853
G1 X88.264 Y77.648 E113.08465
G1 X88.842 Y77.253 E113.15081
G1 X89.461 Y76.927 E113.21692
G1 X90.113 Y76.673 E113.28305
G1 X90.79 Y76.496 E113.34917
G1 X91.483 Y76.397 E113.41533
G1 X92.002 Y76.375 E113.46442
G1 X130.998 Y76.375 E117.14954
G1 X131.697 Y76.415 E117.2157
G1 X132.386 Y76.534 E117.28178
G1 X133.057 Y76.732 E117.34789
G1 X133.702 Y77.004 E117.41404
G1 X134.311 Y77.348 E117.48014
G1 X134.877 Y77.76 E117.54629
G1 X135.392 Y78.233 E117.61237
G1 X135.85 Y78.762 E117.6785
G1 X136.245 Y79.34 E117.74465
G1 X136.571 Y79.959 E117.81077
G1 X136.825 Y80.611 E117.87689
G1 X137.002 Y81.288 E117.94302
G1 X137.101 Y81.981 E118.00917
G1 X137.123 Y82.5 E118.05826
G1 X137.123 Y140.5 E123.53926
G1 X137.083 Y141.199 E123.60542
G1 X136.964 Y141.888 E123.6715
G1 X136.766 Y142.559 E123.73761
G1 X136.494 Y143.204 E123.80376
G1 X136.15 Y143.813 E123.86986
G1 X135.738 Y144.379 E123.93602
G1 X135.265 Y144.894 E124.0021
G1 X134.736 Y145.352 E124.06822
G1 X134.158 Y145.747 E124.13438
G1 X133.539 Y146.073 E124.20049
G1 X132.887 Y146.327 E124.26661
G1 X132.21 Y146.504 E124.33274
G1 X131.517 Y146.603 E124.39889
G1 X130.998 Y146.625 E124.44798
G1 X92.002 Y146.625 E128.1331
G1 X91.303 Y146.585 E128.19927
G1 X90.614 Y146.466 E128.26534
G1 X89.943 Y146.268 E128.33145
G1 X89.298 Y145.996 E128.39761
G1 X88.689 Y145.652 E128.4637
G1 X88.123 Y145.24 E128.52986
G1 X87.608 Y144.767 E128.59594
G1 X87.15 Y144.238 E128.66206
G1 X86.755 Y143.66 E128.72822
G1 X86.429 Y143.041 E128.79433
G1 X86.175 Y142.389 E128.86046
G1 X85.998 Y141.712 E128.92658
G1 X85.899 Y141.019 E128.99274
G1 X85.877 Y140.5 E129.04183
G1 X85.877 Y82.5 E134.52283
G1 X85.917 Y81.801 E134.58899
G1 X86.036 Y81.112 E134.65506
G1 X86.234 Y80.441 E134.72118
G1 X86.506 Y79.796 E134.78733
G1 X86.85 Y79.187 E134.85342
G1 X87.262 Y78.621 E134.91958
G0 F4320 X87.609 Y78.752
G1 F1800 X88.079 Y78.262 E134.98374
G1 X88.604 Y77.831 E135.04793
G1 X89.176 Y77.464 E135.11216
G1 X89.787 Y77.167 E135.17636
G1 X90.429 Y76.943 E135.24061
G1 X91.092 Y76.797 E135.30477
G1 X92.002 Y76.725 E135.39103
G1 X130.998 Y76.725 E139.07615
G1 X131.676 Y76.765 E139.14033
G1 X132.345 Y76.884 E139.20455
G1 X132.995 Y77.081 E139.26873
G1 X133.618 Y77.353 E139.33297
G1 X134.204 Y77.697 E139.39718
G1 X134.746 Y78.107 E139.46141
G1 X135.236 Y78.577 E139.52557
G1 X135.667 Y79.102 E139.58976
G1 X136.034 Y79.674 E139.65398
G1 X136.331 Y80.285 E139.71818
G1 X136.555 Y80.927 E139.78244
G1 X136.701 Y81.59 E139.84659
G1 X136.773 Y82.5 E139.93286
G1 X136.773 Y140.5 E145.41386
G1 X136.733 Y141.178 E145.47804
G1 X136.614 Y141.847 E145.54225
G1 X136.417 Y142.497 E145.60644
G1 X136.145 Y143.12 E145.67068
G1 X135.801 Y143.706 E145.73489
G1 X135.391 Y144.248 E145.79911
G1 X134.921 Y144.738 E145.86328
G1 X134.396 Y145.169 E145.92746
G1 X133.824 Y145.536 E145.99169
G1 X133.213 Y145.833 E146.05589
G1 X132.571 Y146.057 E146.12014
G1 X131.908 Y146.203 E146.1843
G1 X130.998 Y146.275 E146.27056
G1 X92.002 Y146.275 E149.95568
G1 X91.324 Y146.235 E150.01987
G1 X90.655 Y146.116 E150.08408
G1 X90.005 Y145.919 E150.14826
G1 X89.382 Y145.647 E150.2125
G1 X88.796 Y145.303 E150.27672
G1 X88.254 Y144.893 E150.34094
G1 X87.764 Y144.423 E150.4051
G1 X87.333 Y143.898 E150.46929
G1 X86.966 Y143.326 E150.53352
G1 X86.669 Y142.715 E150.59771
G1 X86.445 Y142.073 E150.66197
G1 X86.299 Y141.41 E150.72613
G1 X86.227 Y140.5 E150.81239
G1 X86.227 Y82.5 E156.29339
G1 X86.267 Y81.822 E156.35757
G1 X86.386 Y81.153 E156.42178
G1 X86.583 Y80.503 E156.48597
G1 X86.855 Y79.88 E156.55021
G1 X87.199 Y79.294 E156.61442
G1 X87.609 Y78.752 E156.67864
G0 F4320 X87.955 Y78.887
G1 F1800 X88.422 Y78.424 E156.74079
G1 X88.943 Y78.02 E156.80309
G1 X89.508 Y77.682 E156.86531
G1 X90.11 Y77.416 E156.9275
G1 X90.74 Y77.224 E156.98974
G1 X91.388 Y77.11 E157.05192
G1 X92.002 Y77.075 E157.11004
G1 X130.998 Y77.075 E160.79516
G1 X131.655 Y77.115 E160.85736
G1 X132.303 Y77.234 E160.91962
G1 X132.931 Y77.431 E160.98182
G1 X133.531 Y77.703 E161.04407
G1 X134.094 Y78.045 E161.10632
G1 X134.611 Y78.453 E161.16856
G1 X135.074 Y78.92 E161.2307
G1 X135.478 Y79.441 E161.29301
G1 X135.816 Y80.006 E161.35522
G1 X136.082 Y80.608 E161.41742
G1 X136.274 Y81.238 E161.47966
G1 X136.388 Y81.886 E161.54183
G1 X136.423 Y82.5 E161.59995
G1 X136.423 Y140.5 E167.08095
G1 X136.383 Y141.157 E167.14315
G1 X136.264 Y141.805 E167.20541
G1 X136.067 Y142.433 E167.26761
G1 X135.795 Y143.033 E167.32986
G1 X135.453 Y143.596 E167.39211
G1 X135.045 Y144.113 E167.45435
G1 X134.578 Y144.576 E167.5165
G1 X134.057 Y144.98 E167.5788
G1 X133.492 Y145.318 E167.64102
G1 X132.89 Y145.584 E167.70321
G1 X132.26 Y145.776 E167.76545
G1 X131.612 Y145.89 E167.82763
G1 X130.998 Y145.925 E167.88574
G1 X92.002 Y145.925 E171.57087
G1 X91.345 Y145.885 E171.63307
G1 X90.697 Y145.766 E171.69533
G1 X90.069 Y145.569 E171.75752
G1 X89.469 Y145.297 E171.81978
G1 X88.906 Y144.955 E171.88203
G1 X88.389 Y144.547 E171.94427
G1 X87.926 Y144.08 E172.00641
G1 X87.522 Y143.559 E172.06871
G1 X87.184 Y142.994 E172.13093
G1 X86.918 Y142.392 E172.19313
G1 X86.726 Y141.762 E172.25536
G1 X86.612 Y141.114 E172.31754
G1 X86.577 Y140.5 E172.37566
G1 X86.577 Y82.5 E177.85666
G1 X86.617 Y81.843 E177.91886
G1 X86.736 Y81.195 E177.98112
G1 X86.933 Y80.567 E178.04332
G1 X87.205 Y79.967 E178.10557
G1 X87.547 Y79.404 E178.16782
G1 X87.955 Y78.887 E178.23006
G0 F4320 X88.301 Y79.028
G1 F1800 X88.765 Y78.592 E178.29023
G1 X89.28 Y78.217 E178.35043
G1 X89.837 Y77.91 E178.41053
G1 X90.429 Y77.675 E178.47072
G1 X91.046 Y77.516 E178.53093
G1 X91.678 Y77.435 E178.59115
G1 X92.002 Y77.425 E178.62178
G1 X130.998 Y77.425 E182.3069
G1 X131.634 Y77.465 E182.36712
G1 X132.259 Y77.584 E182.42725
G1 X132.865 Y77.781 E182.48746
G1 X133.441 Y78.052 E182.54762
G1 X133.979 Y78.393 E182.60781
G1 X134.47 Y78.799 E182.66802
G1 X134.906 Y79.263 E182.72819
G1 X135.281 Y79.778 E182.78839
G1 X135.588 Y80.335 E182.84849
G1 X135.823 Y80.927 E182.90868
G1 X135.982 Y81.544 E182.96889
G1 X136.063 Y82.176 E183.02911
G1 X136.073 Y82.5 E183.05974
