;FLAVOR:UltiGCode
;TIME:10184
;MATERIAL:5615
;MATERIAL2:0
;NOZZLE_DIAMETER:0.4
;MINX:74.125
;MINY:74.625
;MINZ:0.27
;MAXX:148.875
;MAXY:148.375
;MAXZ:2.01
;Generated with Cura_SteamEngine 4.13.1
M82 ;absolute extrusion mode
G0 F3000 Y50 ;avoid prime blob
G92 E0
G92 E0
G10
;LAYER_COUNT:30
;LAYER:0
M107
G0 F4320 X76.55 Y76.816 Z0.27
;TYPE:SKIRT
G11
G1 F1800 X77.149 Y76.296 E0.07496
G1 X77.798 Y75.84 E0.14992
G1 X78.49 Y75.451 E0.22493
G1 X79.217 Y75.133 E0.29992
G1 X79.973 Y74.89 E0.37496
G1 X80.749 Y74.725 E0.44993
G1 X81.537 Y74.639 E0.52484
G1 X82 Y74.625 E0.56861
G1 X141 Y74.625 E6.14411
G1 X141.792 Y74.665 E6.21905
G1 X142.577 Y74.784 E6.29408
G1 X143.345 Y74.982 E6.36903
G1 X144.09 Y75.257 E6.44408
G1 X144.803 Y75.604 E6.51901
G1 X145.478 Y76.022 E6.59404
G1 X146.107 Y76.505 E6.66898
G1 X146.684 Y77.05 E6.74399
G1 X147.204 Y77.649 E6.81895
G1 X147.66 Y78.298 E6.8939
G1 X148.049 Y78.99 E6.96892
G1 X148.367 Y79.717 E7.04391
G1 X148.61 Y80.473 E7.11895
G1 X148.775 Y81.249 E7.19392
G1 X148.861 Y82.037 E7.26883
G1 X148.875 Y82.5 E7.3126
G1 X148.875 Y140.5 E12.7936
G1 X148.835 Y141.292 E12.86854
G1 X148.716 Y142.077 E12.94357
G1 X148.518 Y142.845 E13.01852
G1 X148.243 Y143.59 E13.09357
G1 X147.896 Y144.303 E13.1685
G1 X147.478 Y144.978 E13.24353
G1 X146.995 Y145.607 E13.31847
G1 X146.45 Y146.184 E13.39348
G1 X145.851 Y146.704 E13.46844
G1 X145.202 Y147.16 E13.54339
G1 X144.51 Y147.549 E13.61841
G1 X143.783 Y147.867 E13.6934
G1 X143.027 Y148.11 E13.76844
G1 X142.251 Y148.275 E13.84341
G1 X141.463 Y148.361 E13.91832
G1 X141 Y148.375 E13.96209
G1 X82 Y148.375 E19.53759
G1 X81.208 Y148.335 E19.61253
G1 X80.423 Y148.216 E19.68756
G1 X79.655 Y148.018 E19.76251
G1 X78.91 Y147.743 E19.83756
G1 X78.197 Y147.396 E19.91249
G1 X77.522 Y146.978 E19.98752
G1 X76.893 Y146.495 E20.06246
G1 X76.316 Y145.95 E20.13747
G1 X75.796 Y145.351 E20.21243
G1 X75.34 Y144.702 E20.28738
G1 X74.951 Y144.01 E20.3624
G1 X74.633 Y143.283 E20.43739
G1 X74.39 Y142.527 E20.51243
G1 X74.225 Y141.751 E20.5874
G1 X74.139 Y140.963 E20.66231
G1 X74.125 Y140.5 E20.70608
G1 X74.125 Y82.5 E26.18708
G1 X74.165 Y81.708 E26.26202
G1 X74.284 Y80.923 E26.33705
G1 X74.482 Y80.155 E26.412
G1 X74.757 Y79.41 E26.48704
G1 X75.104 Y78.697 E26.56198
G1 X75.522 Y78.022 E26.63701
G1 X76.005 Y77.393 E26.71195
G1 X76.55 Y76.816 E26.78695
G0 F4320 X76.894 Y76.973
G1 F1800 X77.49 Y76.476 E26.86029
G1 X78.134 Y76.044 E26.93357
G1 X78.819 Y75.681 E27.00683
G1 X79.538 Y75.389 E27.08017
G1 X80.283 Y75.174 E27.15344
G1 X81.046 Y75.036 E27.22672
G1 X82 Y74.975 E27.31705
G1 X141 Y74.975 E32.89255
G1 X141.775 Y75.015 E32.96589
G1 X142.541 Y75.134 E33.03914
G1 X143.291 Y75.332 E33.11245
G1 X144.017 Y75.606 E33.18578
G1 X144.71 Y75.953 E33.25902
G1 X145.364 Y76.37 E33.33231
G1 X145.972 Y76.852 E33.40563
G1 X146.527 Y77.394 E33.47894
G1 X147.024 Y77.99 E33.55228
G1 X147.456 Y78.634 E33.62556
G1 X147.819 Y79.319 E33.69882
G1 X148.111 Y80.038 E33.77215
G1 X148.326 Y80.783 E33.84543
G1 X148.464 Y81.546 E33.9187
G1 X148.525 Y82.5 E34.00904
G1 X148.525 Y140.5 E39.49004
G1 X148.485 Y141.275 E39.56338
G1 X148.366 Y142.041 E39.63663
G1 X148.168 Y142.791 E39.70993
G1 X147.894 Y143.517 E39.78326
G1 X147.547 Y144.21 E39.8565
G1 X147.13 Y144.864 E39.9298
G1 X146.648 Y145.472 E40.00312
G1 X146.106 Y146.027 E40.07643
G1 X145.51 Y146.524 E40.14977
G1 X144.866 Y146.956 E40.22305
G1 X144.181 Y147.319 E40.29631
G1 X143.462 Y147.611 E40.36964
G1 X142.717 Y147.826 E40.44292
G1 X141.954 Y147.964 E40.51619
G1 X141 Y148.025 E40.60653
G1 X82 Y148.025 E46.18203
G1 X81.225 Y147.985 E46.25536
G1 X80.459 Y147.866 E46.32862
G1 X79.709 Y147.668 E46.40192
G1 X78.983 Y147.394 E46.47525
G1 X78.29 Y147.047 E46.54849
G1 X77.636 Y146.63 E46.62179
G1 X77.028 Y146.148 E46.69511
G1 X76.473 Y145.606 E46.76842
G1 X75.976 Y145.01 E46.84175
G1 X75.544 Y144.366 E46.91504
G1 X75.181 Y143.681 E46.9883
G1 X74.889 Y142.962 E47.06163
G1 X74.674 Y142.217 E47.13491
G1 X74.536 Y141.454 E47.20818
G1 X74.475 Y140.5 E47.29852
G1 X74.475 Y82.5 E52.77952
G1 X74.515 Y81.725 E52.85285
G1 X74.634 Y80.959 E52.92611
G1 X74.832 Y80.209 E52.99941
G1 X75.106 Y79.483 E53.07274
G1 X75.453 Y78.79 E53.14598
G1 X75.87 Y78.136 E53.21928
G1 X76.352 Y77.528 E53.2926
G1 X76.894 Y76.973 E53.36591
G0 F4320 X77.237 Y77.134
G1 F1800 X77.829 Y76.662 E53.43746
G1 X78.468 Y76.255 E53.50905
G1 X79.146 Y75.917 E53.58064
G1 X79.855 Y75.653 E53.65214
G1 X80.589 Y75.465 E53.72374
G1 X81.338 Y75.356 E53.79526
G1 X82 Y75.325 E53.85789
G1 X141 Y75.325 E59.43339
G1 X141.756 Y75.365 E59.50493
G1 X142.504 Y75.484 E59.57651
G1 X143.235 Y75.682 E59.64808
G1 X143.942 Y75.956 E59.71973
G1 X144.615 Y76.302 E59.79124
G1 X145.248 Y76.718 E59.86282
G1 X145.834 Y77.198 E59.9344
G1 X146.366 Y77.737 E60.00597
G1 X146.838 Y78.329 E60.07752
G1 X147.245 Y78.968 E60.14911
G1 X147.583 Y79.646 E60.22071
G1 X147.847 Y80.355 E60.2922
G1 X148.035 Y81.089 E60.3638
G1 X148.144 Y81.838 E60.43533
G1 X148.175 Y82.5 E60.49796
G1 X148.175 Y140.5 E65.97896
G1 X148.135 Y141.256 E66.0505
G1 X148.016 Y142.004 E66.12207
G1 X147.818 Y142.735 E66.19364
G1 X147.544 Y143.442 E66.2653
G1 X147.198 Y144.115 E66.33681
G1 X146.782 Y144.748 E66.40839
G1 X146.302 Y145.334 E66.47997
G1 X145.763 Y145.866 E66.55154
G1 X145.171 Y146.338 E66.62309
G1 X144.532 Y146.745 E66.69468
G1 X143.854 Y147.083 E66.76627
G1 X143.145 Y147.347 E66.83777
G1 X142.411 Y147.535 E66.90937
G1 X141.662 Y147.644 E66.98089
G1 X141 Y147.675 E67.04352
G1 X82 Y147.675 E72.61902
G1 X81.244 Y147.635 E72.69056
G1 X80.496 Y147.516 E72.76214
G1 X79.765 Y147.318 E72.83371
G1 X79.058 Y147.044 E72.90536
G1 X78.385 Y146.698 E72.97687
G1 X77.752 Y146.282 E73.04845
G1 X77.166 Y145.802 E73.12004
G1 X76.634 Y145.263 E73.1916
G1 X76.162 Y144.671 E73.26315
G1 X75.755 Y144.032 E73.33475
G1 X75.417 Y143.354 E73.40634
G1 X75.153 Y142.645 E73.47783
G1 X74.965 Y141.911 E73.54943
G1 X74.856 Y141.162 E73.62096
G1 X74.825 Y140.5 E73.68359
G1 X74.825 Y82.5 E79.16459
G1 X74.865 Y81.744 E79.23613
G1 X74.984 Y80.996 E79.3077
G1 X75.182 Y80.265 E79.37927
G1 X75.456 Y79.558 E79.45093
G1 X75.802 Y78.885 E79.52244
G1 X76.218 Y78.252 E79.59402
G1 X76.698 Y77.666 E79.6656
G1 X77.237 Y77.134 E79.73717
G0 F4320 X77.043 Y77.808
G1 F1800 X77.579 Y77.3 E79.80695
G1 X78.167 Y76.853 E79.87675
G1 X78.8 Y76.472 E79.94657
G1 X79.47 Y76.161 E80.01638
G1 X80.17 Y75.925 E80.08618
G1 X80.891 Y75.766 E80.15596
G1 X81.626 Y75.685 E80.22583
G1 X82 Y75.675 E80.26119
G1 X141 Y75.675 E85.83669
G1 X141.738 Y75.715 E85.90653
G1 X142.466 Y75.834 E85.97624
G1 X143.178 Y76.032 E86.04608
G1 X143.864 Y76.305 E86.11585
G1 X144.517 Y76.651 E86.18569
G1 X145.129 Y77.065 E86.25551
G1 X145.692 Y77.543 E86.3253
G1 X146.2 Y78.079 E86.39509
G1 X146.647 Y78.667 E86.46489
G1 X147.028 Y79.3 E86.53471
G1 X147.339 Y79.97 E86.60451
G1 X147.575 Y80.67 E86.67432
G1 X147.734 Y81.391 E86.74409
G1 X147.815 Y82.126 E86.81397
G1 X147.825 Y82.5 E86.84932
G1 X147.825 Y140.5 E92.33032
G1 X147.785 Y141.238 E92.40017
G1 X147.666 Y141.966 E92.46988
G1 X147.468 Y142.678 E92.53971
G1 X147.195 Y143.364 E92.60949
G1 X146.849 Y144.017 E92.67932
G1 X146.435 Y144.629 E92.74915
G1 X145.957 Y145.192 E92.81894
G1 X145.421 Y145.7 E92.88872
G1 X144.833 Y146.147 E92.95852
G1 X144.2 Y146.528 E93.02834
G1 X143.53 Y146.839 E93.09815
G1 X142.83 Y147.075 E93.16795
G1 X142.109 Y147.234 E93.23773
G1 X141.374 Y147.315 E93.3076
G1 X141 Y147.325 E93.34296
G1 X82 Y147.325 E98.91846
G1 X81.262 Y147.285 E98.9883
G1 X80.534 Y147.166 E99.05801
G1 X79.822 Y146.968 E99.12785
G1 X79.136 Y146.695 E99.19762
G1 X78.483 Y146.349 E99.26746
G1 X77.871 Y145.935 E99.33728
G1 X77.308 Y145.457 E99.40707
G1 X76.8 Y144.921 E99.47686
G1 X76.353 Y144.333 E99.54666
G1 X75.972 Y143.7 E99.61648
G1 X75.661 Y143.03 E99.68628
G1 X75.425 Y142.33 E99.75609
G1 X75.266 Y141.609 E99.82586
G1 X75.185 Y140.874 E99.89574
G1 X75.175 Y140.5 E99.93109
G1 X75.175 Y82.5 E105.41209
G1 X75.215 Y81.762 E105.48194
G1 X75.334 Y81.034 E105.55165
G1 X75.532 Y80.322 E105.62148
G1 X75.805 Y79.636 E105.69126
G1 X76.151 Y78.983 E105.76109
G1 X76.565 Y78.371 E105.83092
G1 X77.043 Y77.808 E105.90071
G0 F4320 X77.389 Y77.955
G1 F1800 X77.921 Y77.471 E105.96867
G1 X78.504 Y77.05 E106.03663
G1 X79.131 Y76.696 E106.10467
G1 X79.792 Y76.413 E106.17262
G1 X80.481 Y76.206 E106.24061
G1 X81.189 Y76.076 E106.30863
G1 X82 Y76.025 E106.38542
G1 X141 Y76.025 E111.96092
G1 X141.718 Y76.065 E112.02888
G1 X142.428 Y76.184 E112.09691
G1 X143.12 Y76.382 E112.16493
G1 X143.785 Y76.655 E112.23286
G1 X144.417 Y77 E112.3009
G1 X145.006 Y77.413 E112.36888
G1 X145.545 Y77.889 E112.43684
G1 X146.029 Y78.421 E112.50481
G1 X146.45 Y79.004 E112.57276
G1 X146.804 Y79.631 E112.64081
G1 X147.087 Y80.292 E112.70875
G1 X147.294 Y80.981 E112.77674
G1 X147.424 Y81.689 E112.84476
G1 X147.475 Y82.5 E112.92155
G1 X147.475 Y140.5 E118.40255
G1 X147.435 Y141.218 E118.47051
G1 X147.316 Y141.928 E118.53854
G1 X147.118 Y142.62 E118.60656
G1 X146.845 Y143.285 E118.67449
G1 X146.5 Y143.917 E118.74254
G1 X146.087 Y144.506 E118.81052
G1 X145.611 Y145.045 E118.87847
G1 X145.079 Y145.529 E118.94644
G1 X144.496 Y145.95 E119.01439
G1 X143.869 Y146.304 E119.08244
G1 X143.208 Y146.587 E119.15038
G1 X142.519 Y146.794 E119.21837
G1 X141.811 Y146.924 E119.28639
G1 X141 Y146.975 E119.36319
G1 X82 Y146.975 E124.93869
G1 X81.282 Y146.935 E125.00664
G1 X80.572 Y146.816 E125.07467
G1 X79.88 Y146.618 E125.14269
G1 X79.215 Y146.345 E125.21062
G1 X78.583 Y146 E125.27867
G1 X77.994 Y145.587 E125.34665
G1 X77.455 Y145.111 E125.4146
G1 X76.971 Y144.579 E125.48257
G1 X76.55 Y143.996 E125.55052
G1 X76.196 Y143.369 E125.61857
G1 X75.913 Y142.708 E125.68652
G1 X75.706 Y142.019 E125.7545
G1 X75.576 Y141.311 E125.82253
G1 X75.525 Y140.5 E125.89932
G1 X75.525 Y82.5 E131.38032
G1 X75.565 Y81.782 E131.44827
G1 X75.684 Y81.072 E131.5163
G1 X75.882 Y80.38 E131.58432
G1 X76.155 Y79.715 E131.65225
G1 X76.5 Y79.083 E131.7203
G1 X76.913 Y78.494 E131.78828
G1 X77.389 Y77.955 E131.85623
G0 F4320 X77.733 Y78.106
G1 F1800 X78.262 Y77.648 E131.92235
G1 X78.84 Y77.253 E131.98851
G1 X79.459 Y76.927 E132.05462
G1 X80.111 Y76.673 E132.12075
G1 X80.788 Y76.496 E132.18688
G1 X81.481 Y76.397 E132.25303
G1 X82 Y76.375 E132.30212
G1 X141 Y76.375 E137.87762
G1 X141.699 Y76.415 E137.94378
G1 X142.388 Y76.534 E138.00986
G1 X143.059 Y76.732 E138.07597
G1 X143.704 Y77.004 E138.14212
G1 X144.313 Y77.348 E138.20822
G1 X144.879 Y77.76 E138.27437
G1 X145.394 Y78.233 E138.34045
G1 X145.852 Y78.762 E138.40658
G1 X146.247 Y79.34 E138.47273
G1 X146.573 Y79.959 E138.53885
G1 X146.827 Y80.611 E138.60497
G1 X147.004 Y81.288 E138.6711
G1 X147.103 Y81.981 E138.73725
G1 X147.125 Y82.5 E138.78634
G1 X147.125 Y140.5 E144.26734
G1 X147.085 Y141.199 E144.3335
G1 X146.966 Y141.888 E144.39958
G1 X146.768 Y142.559 E144.46569
G1 X146.496 Y143.204 E144.53184
G1 X146.152 Y143.813 E144.59794
G1 X145.74 Y144.379 E144.66409
G1 X145.267 Y144.894 E144.73017
G1 X144.738 Y145.352 E144.7963
G1 X144.16 Y145.747 E144.86245
G1 X143.541 Y146.073 E144.92857
G1 X142.889 Y146.327 E144.99469
G1 X142.212 Y146.504 E145.06082
G1 X141.519 Y146.603 E145.12697
G1 X141 Y146.625 E145.17606
G1 X82 Y146.625 E150.75156
G1 X81.301 Y146.585 E150.81772
G1 X80.612 Y146.466 E150.8838
G1 X79.941 Y146.268 E150.94991
G1 X79.296 Y145.996 E151.01606
G1 X78.687 Y145.652 E151.08216
G1 X78.121 Y145.24 E151.14832
G1 X77.606 Y144.767 E151.2144
G1 X77.148 Y144.238 E151.28052
G1 X76.753 Y143.66 E151.34668
G1 X76.427 Y143.041 E151.41279
G1 X76.173 Y142.389 E151.47891
G1 X75.996 Y141.712 E151.54504
G1 X75.897 Y141.019 E151.61119
G1 X75.875 Y140.5 E151.66028
G1 X75.875 Y82.5 E157.14128
G1 X75.915 Y81.801 E157.20745
G1 X76.034 Y81.112 E157.27352
G1 X76.232 Y80.441 E157.33963
G1 X76.504 Y79.796 E157.40578
G1 X76.848 Y79.187 E157.47188
G1 X77.26 Y78.621 E157.53804
G1 X77.733 Y78.106 E157.60412
G0 F4320 X78.077 Y78.262
G1 F1800 X78.602 Y77.831 E157.66831
G1 X79.174 Y77.464 E157.73253
G1 X79.785 Y77.167 E157.79673
G1 X80.427 Y76.943 E157.86098
G1 X81.09 Y76.797 E157.92514
G1 X82 Y76.725 E158.0114
G1 X141 Y76.725 E163.5869
G1 X141.678 Y76.765 E163.65109
G1 X142.347 Y76.884 E163.7153
G1 X142.997 Y77.081 E163.77948
G1 X143.62 Y77.353 E163.84372
G1 X144.206 Y77.697 E163.90794
G1 X144.748 Y78.107 E163.97216
G1 X145.238 Y78.577 E164.03632
G1 X145.669 Y79.102 E164.10051
G1 X146.036 Y79.674 E164.16473
G1 X146.333 Y80.285 E164.22893
G1 X146.557 Y80.927 E164.29319
G1 X146.703 Y81.59 E164.35734
G1 X146.775 Y82.5 E164.44361
G1 X146.775 Y140.5 E169.92461
G1 X146.735 Y141.178 E169.98879
G1 X146.616 Y141.847 E170.053
G1 X146.419 Y142.497 E170.11719
G1 X146.147 Y143.12 E170.18143
G1 X145.803 Y143.706 E170.24564
G1 X145.393 Y144.248 E170.30986
G1 X144.923 Y144.738 E170.37403
G1 X144.398 Y145.169 E170.43822
G1 X143.826 Y145.536 E170.50244
G1 X143.215 Y145.833 E170.56664
G1 X142.573 Y146.057 E170.63089
G1 X141.91 Y146.203 E170.69505
G1 X141 Y146.275 E170.78131
G1 X82 Y146.275 E176.35681
G1 X81.322 Y146.235 E176.421
G1 X80.653 Y146.116 E176.48521
G1 X80.003 Y145.919 E176.54939
G1 X79.38 Y145.647 E176.61363
G1 X78.794 Y145.303 E176.67785
G1 X78.252 Y144.893 E176.74207
G1 X77.762 Y144.423 E176.80623
G1 X77.331 Y143.898 E176.87042
G1 X76.964 Y143.326 E176.93464
G1 X76.667 Y142.715 E176.99884
G1 X76.443 Y142.073 E177.0631
G1 X76.297 Y141.41 E177.12725
G1 X76.225 Y140.5 E177.21352
G1 X76.225 Y82.5 E182.69452
G1 X76.265 Y81.822 E182.7587
G1 X76.384 Y81.153 E182.82291
G1 X76.581 Y80.503 E182.8871
G1 X76.853 Y79.88 E182.95134
G1 X77.197 Y79.294 E183.01555
G1 X77.607 Y78.752 E183.07977
G1 X78.077 Y78.262 E183.14394
G0 F4320 X78.42 Y78.424
G1 F1800 X78.941 Y78.02 E183.20624
G1 X79.506 Y77.682 E183.26846
G1 X80.108 Y77.416 E183.33065
G1 X80.738 Y77.224 E183.39289
G1 X81.386 Y77.11 E183.45507
G1 X82 Y77.075 E183.51318
G1 X141 Y77.075 E189.08868
G1 X141.657 Y77.115 E189.15088
G1 X142.305 Y77.234 E189.21314
G1 X142.933 Y77.431 E189.27534
G1 X143.533 Y77.703 E189.3376
G1 X144.096 Y78.045 E189.39985
G1 X144.613 Y78.453 E189.46208
G1 X145.076 Y78.92 E189.52423
G1 X145.48 Y79.441 E189.58653
G1 X145.818 Y80.006 E189.64875
G1 X146.084 Y80.608 E189.71094
G1 X146.276 Y81.238 E189.77318
G1 X146.39 Y81.886 E189.83536
G1 X146.425 Y82.5 E189.89348
G1 X146.425 Y140.5 E195.37448
G1 X146.385 Y141.157 E195.43668
G1 X146.266 Y141.805 E195.49894
G1 X146.069 Y142.433 E195.56114
G1 X145.797 Y143.033 E195.62339
G1 X145.455 Y143.596 E195.68564
G1 X145.047 Y144.113 E195.74788
G1 X144.58 Y144.576 E195.81002
G1 X144.059 Y144.98 E195.87232
G1 X143.494 Y145.318 E195.93454
G1 X142.892 Y145.584 E195.99674
G1 X142.262 Y145.776 E196.05898
G1 X141.614 Y145.89 E196.12115
G1 X141 Y145.925 E196.17927
G1 X82 Y145.925 E201.75477
G1 X81.343 Y145.885 E201.81697
G1 X80.695 Y145.766 E201.87923
G1 X80.067 Y145.569 E201.94143
G1 X79.467 Y145.297 E202.00368
G1 X78.904 Y144.955 E202.06593
G1 X78.387 Y144.547 E202.12817
G1 X77.924 Y144.08 E202.19031
G1 X77.52 Y143.559 E202.25262
G1 X77.182 Y142.994 E202.31483
G1 X76.916 Y142.392 E202.37703
G1 X76.724 Y141.762 E202.43927
G1 X76.61 Y141.114 E202.50144
G1 X76.575 Y140.5 E202.55956
G1 X76.575 Y82.5 E208.04056
G1 X76.615 Y81.843 E208.10276
G1 X76.734 Y81.195 E208.16502
G1 X76.931 Y80.567 E208.22722
G1 X77.203 Y79.967 E208.28947
G1 X77.545 Y79.404 E208.35173
G1 X77.953 Y78.887 E208.41396
G1 X78.42 Y78.424 E208.47611
G0 F4320 X78.299 Y79.028
G1 F1800 X78.763 Y78.592 E208.53628
G1 X79.278 Y78.217 E208.59648
G1 X79.835 Y77.91 E208.65658
G1 X80.427 Y77.675 E208.71677
G1 X81.044 Y77.516 E208.77698
G1 X81.676 Y77.435 E208.8372
G1 X82 Y77.425 E208.86783
G1 X141 Y77.425 E214.44333
G1 X141.636 Y77.465 E214.50355
G1 X142.261 Y77.584 E214.56367
G1 X142.867 Y77.781 E214.62389
G1 X143.443 Y78.052 E214.68404
G1 X143.981 Y78.393 E214.74424
G1 X144.472 Y78.799 E214.80445
G1 X144.908 Y79.263 E214.86461
G1 X145.283 Y79.778 E214.92482
G1 X145.59 Y80.335 E214.98492
G1 X145.825 Y80.927 E215.04511
G1 X145.984 Y81.544 E215.10532
G1 X146.065 Y82.176 E215.16553
G1 X146.075 Y82.5 E215.19617
G1 X146.075 Y140.5 E220.67717
G1 X146.035 Y141.136 E220.73739
G1 X145.916 Y141.761 E220.79751
G1 X145.719 Y142.367 E220.85773
